public/assets/icons/social/fb.svg

<svg width="37" height="35" viewBox="0 0 37 35" fill="none" xmlns="http://www.w3.org/2000/svg">
<g opacity="0.8">
<circle cx="18.2441" cy="17.5" r="10.9375" fill="#020F59"/>
<path d="M19.3461 15.3332V14.0899C19.3461 13.5286 19.4734 13.2447 20.3677 13.2447H21.4898V11.1562H19.6174C17.3229 11.1562 16.5659 12.1809 16.5659 13.9398V15.3332H15.0586V17.4216H16.5659V23.687H19.3461V17.4216H21.2353L21.4898 15.3332H19.3461Z" fill="white"/>
</g>
</svg>

<svg xmlns="http://www.w3.org/2000/svg" width="37" height="35" fill="none"><g opacity=".8"><circle cx="18.244" cy="17.5" r="10.938" fill="#020F59"/><path fill="#fff" d="M19.346 15.333V14.09c0-.561.127-.845 1.022-.845h1.122v-2.089h-1.873c-2.294 0-3.051 1.025-3.051 2.784v1.393h-1.507v2.089h1.507v6.265h2.78v-6.265h1.89l.254-2.089h-2.144Z"/></g></svg>
